polaris-icons/icons/newicons/CircleLeftMajor.svg

<svg width="20" height="20" viewBox="0 0 20 20" fill="none" xmlns="http://www.w3.org/2000/svg">
<path d="M14 10.75C14.4142 10.75 14.75 10.4142 14.75 10C14.75 9.58579 14.4142 9.25 14 9.25H8.21298L10.0511 7.25871C10.332 6.95435 10.3131 6.47985 10.0087 6.1989C9.70434 5.91794 9.22984 5.93692 8.94889 6.24129L5.94889 9.49129C5.68369 9.77859 5.68369 10.2214 5.94889 10.5087L8.94889 13.7587C9.22984 14.0631 9.70434 14.0821 10.0087 13.8011C10.3131 13.5202 10.332 13.0457 10.0511 12.7413L8.21298 10.75H14Z" fill="black"/>
<path fill-rule="evenodd" clip-rule="evenodd" d="M9.99999 18C5.58171 18 1.99999 14.4183 1.99999 10C1.99999 5.58172 5.58171 2 9.99999 2C14.4183 2 18 5.58172 18 10C18 14.4183 14.4183 18 9.99999 18ZM9.99999 16.5C6.41014 16.5 3.49999 13.5898 3.49999 10C3.49999 6.41015 6.41014 3.5 9.99999 3.5C13.5898 3.5 16.5 6.41015 16.5 10C16.5 13.5899 13.5898 16.5 9.99999 16.5Z" fill="black"/>
</svg>

<svg viewBox="0 0 20 20" fill="none" xmlns="http://www.w3.org/2000/svg"><path d="M14 10.75a.75.75 0 0 0 0-1.5h-5.787l1.838-1.991a.75.75 0 0 0-1.102-1.018l-3 3.25a.75.75 0 0 0 0 1.018l3 3.25a.75.75 0 1 0 1.102-1.018l-1.838-1.991h5.787Z" fill="#000"/><path fill-rule="evenodd" clip-rule="evenodd" d="M10 18a8 8 0 1 1 0-16 8 8 0 0 1 0 16Zm0-1.5a6.5 6.5 0 1 1 0-13 6.5 6.5 0 0 1 0 13Z" fill="#000"/></svg>
